frontend/src/assets/logo.svg

<svg width="160" height="25" viewBox="0 0 160 25" fill="none" xmlns="http://www.w3.org/2000/svg">
<g clip-path="url(#clip0_1917_3031)">
<path d="M56.6071 17.848C56.6071 17.4416 56.6701 16.8787 56.9505 15.5661L58.1382 10.2209H63.077L64.1397 5.25068H59.201L60.2952 -0.000976562H54.0438L50.7306 15.5966C50.3242 17.4406 50.2307 18.2534 50.2307 19.0032C50.2307 22.9107 53.0755 24.9732 56.4202 24.9732C57.8893 24.9732 58.889 24.8167 60.1397 24.4733L61.2025 19.4726C60.3582 19.5661 59.6398 19.629 58.9205 19.629C57.3884 19.629 56.6071 19.0042 56.6071 17.847V17.848Z" fill="white"/>
<path d="M41.6659 4.72021C34.6647 4.72021 30.3508 9.72095 30.3508 16.6917C30.3508 22.0053 34.0389 25.0066 39.2905 25.0066C41.7909 25.0066 43.6979 24.7881 45.6354 24.2253L46.6667 19.318C45.0726 19.6929 43.322 19.8494 41.29 19.8494C37.9769 19.8494 36.1328 18.7237 36.1328 16.3797C36.1328 16.3178 36.1328 16.2538 36.1358 16.1889C37.6118 16.4034 39.1026 16.5047 41.353 16.5047C46.0733 16.5047 49.105 14.8171 49.105 10.3153C49.105 7.25207 47.1675 4.72021 41.6659 4.72021ZM43.385 11.0021C43.1351 12.2213 42.1658 12.9091 39.3525 12.9091C38.7247 12.9091 37.8253 12.8432 36.8266 12.7064C37.5557 10.8063 38.9323 9.09611 41.291 9.09611C42.7287 9.09611 43.4165 9.84592 43.4165 10.6902C43.4165 10.7837 43.4165 10.9087 43.385 11.0031V11.0021Z" fill="white"/>
<path d="M113.309 4.75073C107.026 4.75073 103.681 8.15738 102.462 14.0654C102.244 15.1596 102.119 16.1908 102.119 17.0971C102.119 22.5357 105.838 25.0056 110.714 25.0056C116.809 25.0056 120.247 21.9109 121.529 15.7224C121.748 14.6597 121.842 13.6905 121.842 12.7842C121.842 7.68899 118.56 4.75073 113.309 4.75073ZM115.559 14.3163L115.246 15.8484C114.778 18.1923 113.434 19.568 111.089 19.568C109.213 19.568 108.401 18.3803 108.401 16.7232C108.401 16.3483 108.432 15.9104 108.525 15.4725L108.838 13.9404C109.307 11.627 110.557 10.1579 112.871 10.1579C114.808 10.1579 115.684 11.439 115.684 13.1276C115.684 13.5025 115.653 13.9089 115.559 14.3153V14.3163Z" fill="white"/>
<path d="M21.5675 15.504C20.9732 18.2543 20.4113 18.9421 19.817 18.9421C18.9422 18.9421 18.8477 18.0978 18.5358 16.1288L17.661 10.9087C16.9112 6.37632 14.5348 4.78223 11.0967 4.78223C6.37638 4.78223 3.50111 7.84545 2.15695 14.2533L0 24.5057H6.09496L8.25191 14.2533C8.84625 11.503 9.40812 10.8152 10.0025 10.8152C10.8772 10.8152 10.9717 11.6595 11.2836 13.6285L12.1584 18.8487C12.9082 23.381 15.2846 24.9751 18.7228 24.9751C23.4431 24.9751 26.3183 21.9119 27.6625 15.504L29.8194 5.2516H23.7245L21.5675 15.504Z" fill="white"/>
<path d="M134.757 16.5037C139.477 16.5037 142.509 14.8162 142.509 10.3143C142.509 7.2511 140.572 4.71924 135.07 4.71924C128.069 4.71924 123.755 9.71998 123.755 16.6907C123.755 22.0044 127.443 25.0056 132.695 25.0056C135.195 25.0056 137.102 24.7871 139.04 24.2243L140.071 19.317C138.477 19.6919 136.726 19.8484 134.694 19.8484C131.381 19.8484 129.537 18.7227 129.537 16.3788C129.537 16.3168 129.537 16.2528 129.54 16.1879C131.016 16.4024 132.507 16.5037 134.757 16.5037ZM134.695 9.09611C136.133 9.09611 136.821 9.84593 136.821 10.6902C136.821 10.7837 136.821 10.9087 136.789 11.0031C136.539 12.2223 135.57 12.9101 132.757 12.9101C132.129 12.9101 131.23 12.8442 130.231 12.7074C130.96 10.8073 132.337 9.0971 134.695 9.0971V9.09611Z" fill="white"/>
<path d="M74.9245 9.47103C76.1122 9.47103 77.7693 9.62749 79.6133 9.90891L80.5825 5.31359C78.832 4.93868 76.5501 4.75073 74.3626 4.75073C69.7673 4.75073 65.4544 6.56328 65.4544 10.7522C65.4544 12.8157 66.4236 13.8784 69.3304 16.0039C71.2994 17.4415 72.2057 18.0978 72.2057 18.6292C72.2057 19.5985 71.08 19.9734 68.6426 19.9734C67.142 19.9734 65.4229 19.7854 63.5789 19.442L62.5791 24.3493C64.2667 24.7871 66.7365 25.0056 69.6433 25.0056C74.832 25.0056 78.708 22.6922 78.708 18.2228C78.708 15.9724 77.0824 14.4403 74.3321 12.5343L73.1129 11.69C72.2686 11.1271 71.9252 10.8772 71.9252 10.5023C71.9252 9.72097 72.925 9.47103 74.9255 9.47103H74.9245Z" fill="white"/>
<path d="M154.342 9.47103C155.53 9.47103 157.187 9.62749 159.031 9.90891L160 5.31359C158.249 4.93868 155.968 4.75073 153.78 4.75073C149.185 4.75073 144.872 6.56328 144.872 10.7522C144.872 12.8157 145.841 13.8784 148.748 16.0039C150.717 17.4415 151.623 18.0978 151.623 18.6292C151.623 19.5985 150.497 19.9734 148.06 19.9734C146.559 19.9734 144.84 19.7854 142.996 19.442L141.997 24.3493C143.684 24.7871 146.154 25.0056 149.061 25.0056C154.249 25.0056 158.125 22.6922 158.125 18.2228C158.125 15.9724 156.5 14.4403 153.75 12.5343L152.53 11.69C151.686 11.1271 151.343 10.8772 151.343 10.5023C151.343 9.72097 152.342 9.47103 154.343 9.47103H154.342Z" fill="white"/>
<path d="M95.5227 4.7508C93.3235 4.7508 91.4913 5.44649 89.7968 6.87036L91.2403 0H84.9889L79.8317 24.5058H86.0831L88.9584 10.8153C90.0526 10.2839 91.1154 10.0025 92.1466 10.0025C93.5842 10.0025 94.2721 10.5338 94.2721 11.5966C94.2721 11.815 94.2721 12.0344 94.2091 12.2844L91.6457 24.5058H97.9287L100.523 12.2214C100.68 11.4401 100.773 10.6893 100.773 10.033C100.773 6.28192 98.2101 4.7508 95.5218 4.7508H95.5227Z" fill="white"/>
</g>
<defs>
<clipPath id="clip0_1917_3031">
<rect width="160" height="25.0057" fill="white"/>
</clipPath>
</defs>
</svg>

<?xml version="1.0" encoding="utf-8"?>
<!-- Generator: Adobe Illustrator 25.0.1, SVG Export Plug-In . SVG Version: 6.00 Build 0)  -->
<svg version="1.1" id="Camada_1" xmlns="http://www.w3.org/2000/svg" xmlns:xlink="http://www.w3.org/1999/xlink" x="0px" y="0px"
	 viewBox="0 0 160 25" style="enable-background:new 0 0 160 25;" xml:space="preserve">
<style type="text/css">
	.st0{fill:currentColor;}
</style>
<g>
	<g>
		<path class="st0" d="M56.6,17.8c0-0.4,0.1-1,0.3-2.3l1.2-5.3h4.9l1.1-5h-4.9L60.3,0H54l-3.3,15.6c-0.4,1.8-0.5,2.7-0.5,3.4
			c0,3.9,2.8,6,6.2,6c1.5,0,2.5-0.2,3.7-0.5l1.1-5c-0.8,0.1-1.6,0.2-2.3,0.2C57.4,19.6,56.6,19,56.6,17.8L56.6,17.8z"/>
		<path class="st0" d="M41.7,4.7c-7,0-11.3,5-11.3,12c0,5.3,3.7,8.3,8.9,8.3c2.5,0,4.4-0.2,6.3-0.8l1-4.9c-1.6,0.4-3.3,0.5-5.4,0.5
			c-3.3,0-5.2-1.1-5.2-3.5c0-0.1,0-0.1,0-0.2c1.5,0.2,3,0.3,5.2,0.3c4.7,0,7.8-1.7,7.8-6.2C49.1,7.3,47.2,4.7,41.7,4.7z M43.4,11
			c-0.2,1.2-1.2,1.9-4,1.9c-0.6,0-1.5-0.1-2.5-0.2c0.7-1.9,2.1-3.6,4.5-3.6c1.4,0,2.1,0.7,2.1,1.6C43.4,10.8,43.4,10.9,43.4,11
			L43.4,11z"/>
		<path class="st0" d="M113.3,4.8c-6.3,0-9.6,3.4-10.8,9.3c-0.2,1.1-0.3,2.1-0.3,3c0,5.4,3.7,7.9,8.6,7.9c6.1,0,9.5-3.1,10.8-9.3
			c0.2-1.1,0.3-2,0.3-2.9C121.8,7.7,118.6,4.8,113.3,4.8z M115.6,14.3l-0.3,1.5c-0.5,2.3-1.8,3.7-4.2,3.7c-1.9,0-2.7-1.2-2.7-2.8
			c0-0.4,0-0.8,0.1-1.3l0.3-1.5c0.5-2.3,1.7-3.8,4-3.8c1.9,0,2.8,1.3,2.8,3C115.7,13.5,115.7,13.9,115.6,14.3L115.6,14.3z"/>
		<path class="st0" d="M21.6,15.5c-0.6,2.8-1.2,3.4-1.8,3.4c-0.9,0-1-0.8-1.3-2.8l-0.9-5.2c-0.7-4.5-3.1-6.1-6.6-6.1
			c-4.7,0-7.6,3.1-8.9,9.5L0,24.5h6.1l2.2-10.3c0.6-2.8,1.2-3.4,1.8-3.4c0.9,0,1,0.8,1.3,2.8l0.9,5.2c0.7,4.5,3.1,6.1,6.6,6.1
			c4.7,0,7.6-3.1,8.9-9.5l2.2-10.3h-6.1L21.6,15.5z"/>
		<path class="st0" d="M134.8,16.5c4.7,0,7.8-1.7,7.8-6.2c0-3.1-1.9-5.6-7.4-5.6c-7,0-11.3,5-11.3,12c0,5.3,3.7,8.3,8.9,8.3
			c2.5,0,4.4-0.2,6.3-0.8l1-4.9c-1.6,0.4-3.3,0.5-5.4,0.5c-3.3,0-5.2-1.1-5.2-3.5c0-0.1,0-0.1,0-0.2C131,16.4,132.5,16.5,134.8,16.5
			z M134.7,9.1c1.4,0,2.1,0.7,2.1,1.6c0,0.1,0,0.2,0,0.3c-0.2,1.2-1.2,1.9-4,1.9c-0.6,0-1.5-0.1-2.5-0.2
			C131,10.8,132.3,9.1,134.7,9.1L134.7,9.1z"/>
		<path class="st0" d="M74.9,9.5c1.2,0,2.8,0.2,4.7,0.4l1-4.6c-1.8-0.4-4-0.6-6.2-0.6c-4.6,0-8.9,1.8-8.9,6c0,2.1,1,3.1,3.9,5.3
			c2,1.4,2.9,2.1,2.9,2.6c0,1-1.1,1.3-3.6,1.3c-1.5,0-3.2-0.2-5.1-0.5l-1,4.9c1.7,0.4,4.2,0.7,7.1,0.7c5.2,0,9.1-2.3,9.1-6.8
			c0-2.3-1.6-3.8-4.4-5.7l-1.2-0.8c-0.8-0.6-1.2-0.8-1.2-1.2C71.9,9.7,72.9,9.5,74.9,9.5L74.9,9.5z"/>
		<path class="st0" d="M154.3,9.5c1.2,0,2.8,0.2,4.7,0.4l1-4.6c-1.8-0.4-4-0.6-6.2-0.6c-4.6,0-8.9,1.8-8.9,6c0,2.1,1,3.1,3.9,5.3
			c2,1.4,2.9,2.1,2.9,2.6c0,1-1.1,1.3-3.6,1.3c-1.5,0-3.2-0.2-5.1-0.5l-1,4.9c1.7,0.4,4.2,0.7,7.1,0.7c5.2,0,9.1-2.3,9.1-6.8
			c0-2.3-1.6-3.8-4.4-5.7l-1.2-0.8c-0.8-0.6-1.2-0.8-1.2-1.2C151.3,9.7,152.3,9.5,154.3,9.5L154.3,9.5z"/>
		<path class="st0" d="M95.5,4.8c-2.2,0-4,0.7-5.7,2.1L91.2,0H85l-5.2,24.5h6.3L89,10.8c1.1-0.5,2.2-0.8,3.2-0.8
			c1.4,0,2.1,0.5,2.1,1.6c0,0.2,0,0.4-0.1,0.7l-2.6,12.2h6.3l2.6-12.3c0.2-0.8,0.2-1.5,0.2-2.2C100.8,6.3,98.2,4.8,95.5,4.8
			L95.5,4.8z"/>
	</g>
</g>
</svg>
